X: 244
T: The 2d Grenadiers Guards March
B: C. & S. Thompson, "The Compleat Tutor for the Fife" c.1760 p.24 #4
S: http://imslp.org/wiki/The_Compleat_Tutor_for_the_Fife_(Anonymous)
Z: 2014 John Chambers <jc:trillian.mit.edu>
M: 6/8
L: 1/8
K: D
% - - - - - - - - - - - - - - - - - - - - - - - - -
|:\
dfa a2f | g2e f2z |\
a2z g2f | gfe d2z :|\
|:\
e3 fdf | e3 fdf |\
e3 fda | g2f Te3 |\
dfa a2f | g2e f2z |\
a2z g2f | gfe d2z :|
% - - - - - - - - - - - - - - - - - - - - - - - - -

%%sep 1 1 500
%%sep 1 1 500

